!!!OTL: AN DER WEICHSEL GEGEN OSTEN
!!!ARE: Europa, Mitteleuropa, Deutschland, Hessen; Rheinland
!!!SCT: E1427
!!!YEM: Copyright 1995, estate of Helmut Schaffrath.
**kern
*ICvox
*Ivox
*M3/4
*k[b-]
*F:
{8.f
16f
=1
4f
4c
8.a
16a
=2
4a
4f
8r}
{8c
=3
8f
8c
8f
8c
8f
8dd
=4
8dd
8cc
8cc}
{8cc
8dd
8cc
=5
8b-
8g
4b-
8cc
8b-
=6
8a
8f
4a}
{8.a
16a
=7
8b-
8b-
8b-
8b-
8.cc
16b-
=8
4a
8r}
{8cc
8dd
8cc
=9
8b-
8g
4b-
8cc
8b-
=10
8a
8f
4a}
{8.a
16a
=11
8b-
8b-
8b-
8b-
8.cc
16b-
=12
4a
4r}
==
!!!AGN: Staende -, Soldaten - Lied
!!!ONB: ESAC (Essen Associative Code) Database: ERK3
!!!AMT: simple triple
!!!AIN: vox
!!!EED: Helmut Schaffrath
!!!EEV: 1.0
*-
